X:1
T: Repeal of the Union
T: 1st setting
R:Jig
Q:180
K:G
M:6/8
L:1/16
|:A2|B2c2B2 A2G2E2|D2G2G2 D2G2G2|B2A2B2 c2B2c2|d2e2f2 g2d2c2|
B6 A2G2E2|D2G2G2 D2G2G2|Bcd2B2 c2A2F2|A2G2G2 G4:|
|:A2|B2A2B2 c2B2c2|d2g2g2 f2d2d2|f2e2f2 g2f2g2|a4g2 f2d2B2|
d2g2g2 b4g2|a4g2 f2d2c2|Bcd2B2 c2A2F2|A2G2G2 G4:|
